!!!SOCIAL_FUNCTION:	songs concerning the sacred stones
!!!PDT:	1918

Specific Region: Dakotas, Minnesota, Montana, Nebraska
!!!REG: Dakotas and Montana
!!!LING_GROUP: Siouan
!!!LANG: Tone
!!!OTL@ENG: May You Behold a Sacred Stone Nation
!!!ONM: No. 59
**kern
*Imale
*clefG2
*k[b-e-a-d-g-]
*M2/4
*MM80
(16g-
16f)
=1
8.f
16f
4f
=2
12f
12e-
12f
8.d-
16f
=3
8.e-
16e-
12f
12e-
12f
=4||
*M3/4
8.d-
16d-
4d-
8B-
16e-
16d-
=5||
*M2/4
8.d-
16d-
4d-
=6
4e-
8.B-
16e-
=7
8.d-
16d-
(16f
8.d-)
=8||
*clefF4
*M3/4
8.B-
16B-
4B-
8F
16F
16F
=9||
*M2/4
8.F
16F
4F
=10
12F
12E-
12F
8.D-
16F
=11
8.E-
16E-
12F
12E-
12F
=12||
*M3/4
8.D-
16D-
4D-
8BB-
16E-
16D-
=13||
*M2/4
8.D-
16D-
4D-
=14
4D-
8.BB-
16E-
=15
8.D-
16D-
(16F
8.D-)
=16
8.BB-
16BB-
8.BB-
16BB-
=17
2BB-
=18
2BB-
==
*-
!!!CNT: Native American -- Sioux
!!!MRD: 1911/07//-1914///
!!!OCL: Frances Densmore
!!!YOR1: Teton Sioux Music, Bulletin 61,
!!!YOR2: Bureau of American Ethnology, Smithsonian Institution
!!!PPR: Government Printing Office
!!!PPP: Washington, D.C.
!!!PDT: 1918///
!!!ENC: Craig Stuart Sapp
!!!END: 2002/03/25/
!!!EEV: 2002/03/31/
!!!AGN: Song of Personal Dreams/Song Concerning the Sacred Stones
!!!MPN@@SIO: Tatang'ka-ohi'tika
!!!MPN@ENG: Brave Buffalo
!!!TXO: Teton Sioux
!!!MLC: Standing Rock Reservation, South Dakota, United States of America
!!!ARL: 45.9/-100.7#
!!!catalog: Catalogue No. 602
!!!PPG: 209
!!!EFL: 59/245
!!!VTS: 3044896197
